X: 1
T:Martyrdom
M:3/4
L:1/8
Q:80
C:Unknown
S:Hymn
K:HP
{g}A2|
{Gdc}d4{e}B2|
{G}A4{Gdc}d3/2e/2|  !
{g}f4{g}e2|
{Gdc}d4{g}f3/2g/2|
{ag}a4{fg}f3/2e/2|  !
{Gdc}d4f2|
{gef}e6|
{G}e4a2|]  !
{fg}f4{g}e2|
{Gdc}d4{g}f2|
{gf}g4{f}g2|  !
{a}f4{g}f2|
{g}A2{d}B2{Gdc}d2|
{g}f4e2|  !
{Gdc}d6|
{gdG}d6|]
